files/2/64x64/places/folder-templates.svg

<?xml version="1.0" encoding="UTF-8" standalone="no"?>
<svg
   xmlns:dc="http://purl.org/dc/elements/1.1/"
   xmlns:cc="http://creativecommons.org/ns#"
   xmlns:rdf="http://www.w3.org/1999/02/22-rdf-syntax-ns#"
   xmlns:svg="http://www.w3.org/2000/svg"
   xmlns="http://www.w3.org/2000/svg"
   xmlns:sodipodi="http://sodipodi.sourceforge.net/DTD/sodipodi-0.dtd"
   xmlns:inkscape="http://www.inkscape.org/namespaces/inkscape"
   width="64"
   height="64"
   viewBox="0 0 64 64"
   id="svg3251"
   version="1.1"
   inkscape:version="0.48.4 r9939"
   sodipodi:docname="folder-templates.svg">
  <metadata
     id="metadata3289">
    <rdf:RDF>
      <cc:Work
         rdf:about="">
        <dc:format>image/svg+xml</dc:format>
        <dc:type
           rdf:resource="http://purl.org/dc/dcmitype/StillImage" />
      </cc:Work>
    </rdf:RDF>
  </metadata>
  <defs
     id="defs3287" />
  <sodipodi:namedview
     pagecolor="#ffffff"
     bordercolor="#666666"
     borderopacity="1"
     objecttolerance="10"
     gridtolerance="10"
     guidetolerance="10"
     inkscape:pageopacity="0"
     inkscape:pageshadow="2"
     inkscape:window-width="658"
     inkscape:window-height="480"
     id="namedview3285"
     showgrid="false"
     inkscape:zoom="3.6875"
     inkscape:cx="49.084746"
     inkscape:cy="29.559322"
     inkscape:window-x="0"
     inkscape:window-y="0"
     inkscape:window-maximized="0"
     inkscape:current-layer="svg3251" />
  <path
     inkscape:connector-curvature="0"
     id="path3009"
     d="M 8.691406,51 C 7.773438,50.90625 7,49.984376 7,48.996094 L 7,11.011718 C 7,9.9609381 7.890624,9.0000001 8.875,9.0000001 l 46.25,0 c 0.984376,0 1.875,0.960938 1.875,2.0117179 l 0,32.472658 c 0,1.054686 -1.4375,2.566406 -2.417968,2.566406 l -16.929688,-0.03126 0,2.648436 c 0,1.046876 -0.82422,2.332032 -1.800782,2.332032 L 8.875,51 c -0.05859,0 -0.117188,0 -0.183594,0 z"
     style="fill:#e9a439;fill-opacity:1;stroke:#e9a439;stroke-width:2;stroke-opacity:1" />
  <path
     inkscape:connector-curvature="0"
     id="path3011"
     d="M 3.097656,13 C 1.960938,13.09375 1,14.015624 1,15.003906 L 1,52.988282 C 1,54.039062 2.105468,55 3.324218,55 l 57.351564,0 C 61.894532,55 63,54.039062 63,52.988282 l 0,-32.472658 c 0,-1.054686 -1.78125,-2.566406 -3,-2.566406 l -20.992188,0.03125 0,-2.648436 C 39.007812,14.285156 37.988282,13 36.773438,13 l -33.44922,0 c -0.07031,0 -0.14453,0 -0.226562,0 z"
     style="fill:#f5c14e;fill-opacity:1;stroke:#e9a439;stroke-width:2;stroke-opacity:1" />
  <path
     style="fill:#d0a444;fill-opacity:1"
     inkscape:connector-curvature="0"
     id="path3261"
     d="m 28,28 0,2 2,0 0,-2 z" />
  <path
     style="fill:#d0a444;fill-opacity:1"
     inkscape:connector-curvature="0"
     id="path3263"
     d="m 36,28 0,2 2,0 0,2 2,0 0,-2.664062 C 40,28 38.671875,28 38.671875,28 z" />
  <path
     style="fill:#d0a444;fill-opacity:1"
     inkscape:connector-curvature="0"
     id="path3265"
     d="m 32,28 0,2 2,0 0,-2 z" />
  <path
     style="fill:#d0a444;fill-opacity:1"
     inkscape:connector-curvature="0"
     id="path3267"
     d="m 22,32 2,0 0,-2 2,0 0,-2 -2.664062,0 C 22,28 22,29.328125 22,29.328125 z" />
  <path
     style="fill:#d0a444;fill-opacity:1"
     inkscape:connector-curvature="0"
     id="path3269"
     d="m 26,46 0,-2 -2,0 0,-2 -2,0 0,2.664062 C 22,46 23.328125,46 23.328125,46 z" />
  <path
     style="fill:#d0a444;fill-opacity:1"
     inkscape:connector-curvature="0"
     id="path3271"
     d="m 34,46 0,-2 -2,0 0,2 z" />
  <path
     style="fill:#d0a444;fill-opacity:1"
     inkscape:connector-curvature="0"
     id="path3273"
     d="m 30,46 0,-2 -2,0 0,2 z" />
  <path
     style="fill:#d0a444;fill-opacity:1"
     inkscape:connector-curvature="0"
     id="path3275"
     d="m 22,40 2,0 0,-2 -2,0 z" />
  <path
     style="fill:#d0a444;fill-opacity:1"
     inkscape:connector-curvature="0"
     id="path3277"
     d="m 22,36 2,0 0,-2 -2,0 z" />
  <path
     style="fill:#d0a444;fill-opacity:1"
     inkscape:connector-curvature="0"
     id="path3279"
     d="m 40,42 -2,0 0,2 -2,0 0,2 2.664062,0 C 40,46 40,44.671875 40,44.671875 z" />
  <path
     style="fill:#d0a444;fill-opacity:1"
     inkscape:connector-curvature="0"
     id="path3281"
     d="m 40,34 -2,0 0,2 2,0 z" />
  <path
     style="fill:#d0a444;fill-opacity:1"
     inkscape:connector-curvature="0"
     id="path3283"
     d="m 40,38 -2,0 0,2 2,0 z" />
</svg>

<svg width="64" xmlns="http://www.w3.org/2000/svg" height="64" viewBox="0 0 64 64" xmlns:xlink="http://www.w3.org/1999/xlink">
<g style="stroke:#e9a439">
<path style="fill:#e9a439" d="M 4.345703 24.5 C 3.886719 24.453125 3.5 23.992188 3.5 23.498047 L 3.5 4.505859 C 3.5 3.980469 3.945312 3.5 4.4375 3.5 L 27.5625 3.5 C 28.054688 3.5 28.5 3.980469 28.5 4.505859 L 28.5 20.742188 C 28.5 21.269531 27.78125 22.025391 27.291016 22.025391 L 18.826172 22.009766 L 18.826172 23.333984 C 18.826172 23.857422 18.414062 24.5 17.925781 24.5 L 4.4375 24.5 C 4.408203 24.5 4.378906 24.5 4.345703 24.5 Z " transform="matrix(2 0 0 2 0 2)"/>
<path style="fill:#f5c14e" d="M 1.548828 5.5 C 0.980469 5.546875 0.5 6.007812 0.5 6.501953 L 0.5 25.494141 C 0.5 26.019531 1.052734 26.5 1.662109 26.5 L 30.337891 26.5 C 30.947266 26.5 31.5 26.019531 31.5 25.494141 L 31.5 9.257812 C 31.5 8.730469 30.609375 7.974609 30 7.974609 L 19.503906 7.990234 L 19.503906 6.666016 C 19.503906 6.142578 18.994141 5.5 18.386719 5.5 L 1.662109 5.5 C 1.626953 5.5 1.589844 5.5 1.548828 5.5 Z " transform="matrix(2 0 0 2 0 2)"/>
</g>
<g style="fill:#e9a439">
<path d="M 28 28 L 28 30 L 30 30 L 30 28 Z "/>
<path d="M 36 28 L 36 30 L 38 30 L 38 32 L 40 32 L 40 29.335938 C 40 28 38.671875 28 38.671875 28 Z "/>
<path d="M 32 28 L 32 30 L 34 30 L 34 28 Z "/>
<path d="M 22 32 L 24 32 L 24 30 L 26 30 L 26 28 L 23.335938 28 C 22 28 22 29.328125 22 29.328125 Z "/>
<path d="M 26 46 L 26 44 L 24 44 L 24 42 L 22 42 L 22 44.664062 C 22 46 23.328125 46 23.328125 46 Z "/>
<path d="M 34 46 L 34 44 L 32 44 L 32 46 Z "/>
<path d="M 30 46 L 30 44 L 28 44 L 28 46 Z "/>
<path d="M 22 40 L 24 40 L 24 38 L 22 38 Z "/>
<path d="M 22 36 L 24 36 L 24 34 L 22 34 Z "/>
<path d="M 40 42 L 38 42 L 38 44 L 36 44 L 36 46 L 38.664062 46 C 40 46 40 44.671875 40 44.671875 Z "/>
<path d="M 40 34 L 38 34 L 38 36 L 40 36 Z "/>
<path d="M 40 38 L 38 38 L 38 40 L 40 40 Z "/>
</g>
</svg>
